X: 1
T: H\"om\"or\"odi K\"ort\'anc
O: Hungary
Z: John Chambers <jc@trillian.mit.edu>
P: AABAABACCCAABAABA
M: 4/4
L: 1/8
K: Gm
|: "D"d'>a bc' "Gm"ba g2 | "Edim"bc'/b/ ag "Eb"b2 b/a/b/c'/ \
|  "D"d'>a bc' "Gm"ba g2 |  "D"{^c'}d' d- d^f "Gm"g2 [g2B2D2G,2] :|
K: Dm =e
|: "Dm"d>e fg/e/ fe/^c/ d2 d2 | "A7"fg/e/ fe/^c/ "Dm"dA- AA \
| "G"d>e fg/e/ "G#dim"fe/^c/ d2 d2 | "A7"fg/e/ fe/^c/ "Dm"d2 d2 :|
K: Gm
|: "Bb"B>d ff ff f2 | "F7"dd cc "Bb"B2 B2 \
|  "Bb"B>d ff "Gm"ff f2 | "F7"dd cc "Bb"B2 B2 |
|  "Eb"e2 ee "/D"ee e2 | "/C"e2 ee "/Bb"ee e2 \
| "Cm"e2 ee ee "F"f2 | "Bb"dd "F7"cc "Bb"B2 B2 :|


%%sep 1 1 500

